!!!COM: Haydn, Franz Joseph
!!!OTL: Quartet 
!!!ONM: Opus 64, No. 2
!!!OMV: 1
!!!CDT: 1732/3/31/-1809/5/31/
!!!OCY: \O3sterreich
**kern	**kern	**kern	**kern
*clefF4	*clefC3	*clefF	*clefF
*k[f#c#]	*k[f#c#]	*k[f#c#]	*k[f#c#]
*b:	*b:	*b:	*b:
*M4/4	*M4/4	*M4/4	*M4/4
=1	=1	=1	=1
1r	1r	1r	4.dd
.	.	.	16dd
.	.	.	32cc#
.	.	.	32dd
.	.	.	8ff#
.	.	.	8cc#
.	.	.	8dd
.	.	.	8gg
=2	=2	=2	=2
2..r	2..r	2..r	8ff#
.	.	.	8cc#
.	.	.	8dd
.	.	.	8bb
.	.	.	8aa
.	.	.	8gg
.	.	.	8ff#
8F#	8c#	8a#	8ee
=3	=3	=3	=3
2F#	2c#	2a#	2ee
4.G	8B	8b	8dd
.	8c#	8e	8a#
.	8d	8f#	8b
8E	8e	8g	8cc#
=4	=4	=4	=4
2F#	2d	2f#	2b
8FF#	4c#	2r	4a#
8E	.	.	.
8D	4r	.	4r
8C#	.	.	.
=5	=5	=5	=5
4BB	8r	2..r	4.dd
.	8b	.	.
2.r	8a	.	.
.	8g	.	16dd
.	.	.	32cc#
.	.	.	32dd
.	8f#	.	8ff#
.	8e	.	8cc#
.	8d	.	8dd
.	8c#	8a#	8gg
=6	=6	=6	=6
2..r	4d	4b	8ff#
.	.	.	8cc#
.	8r	8r	8dd
.	8e	8gg	8bb
.	4.f#	8ff#	8aa
.	.	8ee	8gg
.	.	8dd	8ff#
8F#	8a#	8cc#	8ee
=7	=7	=7	=7
[2G	2a#	2cc#	2ee
8G]	8b	8b	8dd
8D	8d	8f#	8b
8E	8e	8g	8cc#
8C#	8g	8e	8ee
=8	=8	=8	=8
4F#	4f#	4d	4b
4r	4r	4r	4r
4FF#	4f#	4c#	4a#
4r	4r	4r	4r
=9	=9	=9	=9
4.BB	4.B	4.B	4.B
16BB	16B	16B	16B
32AA#	32A#	32A#	32A#
32BB	32B	32B	32B
8D	8d	8d	8d
8AA#	8A#	8A#	8A#
8BB	8B	8B	8B
8E	8e	8e	8e
=10	=10	=10	=10
8D	8d	8d	8d
8AA#	8A#	8A#	8A#
8BB	8B	8B	8B
2r	4r	4r	16b
.	.	.	32a#
.	.	.	32b
.	.	.	8dd
.	8e	8g	8a#
.	8d	8f#	8b
8r	8r	8r	8ee
=11	=11	=11	=11
4.r	8r	8r	8dd
.	8e	8g	8a#
.	8d	8f#	8b
8G	2r	8b	8ee
8F#	.	8a	8dd#
8E	.	8g	8ee
8D#	.	8f#	8ff#
8BB	8f#	8d#	8aa
=12	=12	=12	=12
4E	8b	8e	8gg
.	8a	8f#	8dd#
2r	8g	8g	8ee
.	8f#	8a	16dd
.	.	.	32cc#
.	.	.	32dd
.	8e	8g	8cc#
.	8d	8f#	8dd
8r	8c#	8e	8ee
8AA	8A	8c#	8gg
=13	=13	=13	=13
4D	4A	4d	8ff#
.	.	.	8cc#
4r	4r	4r	8dd
.	.	.	16dd
.	.	.	32cc#
.	.	.	32dd
4E	4A	4c#	8gg
.	.	.	8cc#
4r	4r	4r	8dd
.	.	.	32dd
.	.	.	32ee
.	.	.	32ff#
.	.	.	32gg
=14	=14	=14	=14
2F#	4D	[2d	8aa
.	.	.	8ccc#
.	4.r	.	8ddd
.	.	.	8aa#
2G	.	8d]	8bb
.	8a	8d#	8ff#
.	8g	8e	8gg
.	8b	8g	8ee
=15	=15	=15	=15
8A	4a	4f#	4dd
8AA	.	.	.
8AA	8r	8e	8cc#
8c#	8e	8a	8aa
8c#	8e	8a	8aa
8d	8f	8b	8gg#
8c#	8e	8a	8gg
8d	8d	8a	8ff#
=16	=16	=16	=16
4.G	4d	2b	8ff#
.	.	.	8ff
.	8r	.	8ee
8G#	8b	.	8dd
4A	4e	4a	8cc#
.	.	.	16.cc#
.	.	.	32dd
8r	8r	8r	8ee
8c#	8e	8a	8aa
=17	=17	=17	=17
8c#	8e	8a	8aa
8d	8f	8b	8gg#
8c#	8e	8a	16gg
.	.	.	16r
2r	8d	8a	8ff#
.	4.g	4.b	8ff#
.	.	.	8ee#
.	.	.	16ee
.	.	.	16r
8r	8f#	8a	8dd
=18	=18	=18	=18
2..r	4.e	4.g	8dd
.	.	.	8cc#
.	.	.	16cc
.	.	.	16r
.	8d	8f#	8b
.	4.c#	4.e	8b
.	.	.	8a#
.	.	.	8a
8BB	8d	8d	8g#
=19	=19	=19	=19
8BB	4d	4d	4.g
8BB-	.	.	.
8AA	8e	8c#	.
8D	8A	8d	8f#
4.GG	8B	4B	8f#
.	4r	.	8e
.	.	8r	8b
8AA	8G	8e	8c#
=20	=20	=20	=20
8DD	16F#	8f#	4d
.	16A	.	.
8D	16d	4r	.
.	16f#	.	.
8D	8d	.	8r
8D	2r	8bb	8ddd
8D	.	8aa	8ccc#
8D	.	8aa	8ccc#
8D	.	8gg	8bb
8D	8r	16gg	16bb
.	.	16bb	16ddd
=21	=21	=21	=21
8DD	16d	8ff#	4aa
.	16f#	.	.
8D	16a	4r	.
.	16f#	.	.
8D	8dd	.	8r
8D	4.r	8b	8gg
8D	.	8a	8ff#
8D	.	8a	8ff#
8D	4c#	8g	8ee
8D	.	8g	16ee
.	.	.	16aa
=22	=22	=22	=22
8DD	16d	4f#	4dd
.	16f#	.	.
8d	16a	.	.
.	16f#	.	.
8d	8dd	8r	8r
8d	8a	8a	8ff#
8d	8cc#	8g	8ee
8d	8dd	8f#	8dd
8d	8dd	8f#	8dd
8d	8a	8a	8ff#
=23	=23	=23	=23
4d	8cc#	8g	8ee
.	8dd	8f#	8dd
8r	8dd	8f#	8dd
8F#	2r	8d	8ff#
8G	.	2d	8ee
8A	.	.	8dd
8B	.	.	8dd
8F#	8r	.	8ff#
=24	=24	=24	=24
8G	4.r	4.d	8ee
8A	.	.	8dd
8B	.	.	8dd
8G#	8b	8b	8ee
4A	4e	8b	8dd
.	.	8a	8cc#
8r	4r	8a	8cc#
8C#	.	8g	8b
=25	=25	=25	=25
4D	4.r	8g	8b
.	.	8f#	8a
8r	.	8f#	8a
8GG	8B	8e	8g
4AA	8B	8e	8g
.	8A	8d	8f#
4AA	8A	8d	8f#
.	8G	8c#	8e
=26	=26	=26	=26
8FF	2.F	2.d 2.A	4.d
8FF	.	.	.
8FF	.	.	.
8FF	.	.	16c#
.	.	.	16d
8FF	.	.	16f
.	.	.	16a
8FF	.	.	16cc#
.	.	.	16dd
8FF	4D	4f 4A	16ff
.	.	.	16aa
8FF	.	.	16ff
.	.	.	16dd
=27	=27	=27	=27
8GG	2.E-	2.B- 2.e-	4.bb-
8GG	.	.	.
8GG	.	.	.
8GG	.	.	16ff#
.	.	.	16gg
8GG	.	.	16bb-
.	.	.	16gg
8GG	.	.	16ee-
.	.	.	16b-
8GG	4G	4G	16g
.	.	.	16e-
8GG	.	.	16B-
.	.	.	16G
=28	=28	=28	=28
2AA-	2A-	2A-	2A-
2F	2f	2f	2f
=29	=29	=29	=29
2AA	2A	2A	2A
2F#	2f#	2f#	2f#
=30	=30	=30	=30
4BB-	4B-	4B-	4B-
4G	4g	4g	4g
4BB	4B	4B	4B
4G	4g	4g	4g
=31	=31	=31	=31
2C#	2E	1A	8c#
.	.	.	8g
.	.	.	8e
.	.	.	8g
2D	2F#	.	8d
.	.	.	8f#
.	.	.	8A
.	.	.	8d
=32	=32	=32	=32
4GG	4B	4G 4e	16A#
.	.	.	16B
.	.	.	16d#
.	.	.	16e
2.r	2.r	2.r	16f#
.	.	.	16g
.	.	.	16a#
.	.	.	16b
.	.	.	16dd#
.	.	.	16ee
.	.	.	16ff#
.	.	.	16gg
.	.	.	16aa#
.	.	.	16bb
.	.	.	16gg
.	.	.	16ee
=33	=33	=33	=33
8AA	8d	8dd	16ff#
.	.	.	16dd
8AA	8d	8dd	16ff#
.	.	.	16aa
8AA	8d	8dd	16ddd
.	.	.	16aa
8AA	8d	8dd	16ff#
.	.	.	16dd
8AA	8G	2cc#	2ee
8AA	8G	.	.
8AA	8G	.	.
8AA	8G	.	.
=34	=34	=34	=34
8D	8F#	8dd	8dd
8DD	8r	2r	8r
2.r	8f#	.	8dd
.	8d	.	16dd
.	.	.	32cc#
.	.	.	32dd
.	8c#	.	8ee
.	8A	8r	8r
.	4r	8cc#	8ee
.	.	8a	16ee
.	.	.	32dd
.	.	.	32ee
=35	=35	=35	=35
4r	4r	8dd	8ff#
.	.	8d	8r
8B	8d	8d	8gg
8B	8d	8d	16gg
.	.	.	32ff#
.	.	.	32gg
8A	8f#	8d	8ff#
8r	8r	8r	8aa
8AA	8g	8c#	8ee
8r	8r	8r	8aa
=36	=36	=36	=36
8D	8f#	8d	8d
8DD	4r	4r	8r
8r	.	.	8dd
8d	8a	8f#	16dd
.	.	.	32cc#
.	.	.	32dd
8r	8r	8r	8ee
8A	8a	8e 8c#	8r
8r	8r	8r	8ee
8A	8c#	8e 8c#	16ee
.	.	.	32dd
.	.	.	32ee
=37	=37	=37	=37
8r	8r	8r	8ff#
8D	8f#	8a	8r
8r	8r	8r	8gg
8GG	8b	8ee	16gg
.	.	.	32ff#
.	.	.	32gg
8r	8r	8r	8ff#
8AA	8a	8f# 8dd	8aa
8r	8r	8r	8ee
8AA	8g	8cc# 8e	8aa
=38	=38	=38	=38
4D	8f#	8dd 8d	8d
.	8d	8ff#	8r
2r	8a	8ee	16ccc#
.	.	.	16ddd
.	8g	8aa	16eee
.	.	.	16ccc#
.	8f#	8d	8ddd
.	8f#	8r	8ddd
4A	8e	8cc#	16eee
.	.	.	16fff#
.	8a	8r	16ggg
.	.	.	16eee
=39	=39	=39	=39
8D	8d	8dd	8fff#
8D	8r	8r	8fff#
8AA	8a	8cc#	16eee
.	.	.	16fff#
8A	8r	8r	16ggg
.	.	.	16eee
8D	8a	8dd	8fff#
8r	8r	8r	8fff#
8AA	8g	8cc# 8ee 8a	8eee
8r	8r	8r	8aaa
=40	=40	=40	=40
4DD	4f#	8ff# 8a 8d	4d
.	.	2..r	.
2.r	2.r	.	2.r
=41	=41	=41	=41
1GG	2G	2G 2g	4G 4g
.	.	.	8r
.	.	.	8gg
.	4.B	4.d	8gg
.	.	.	8ff#
.	.	.	8ff
.	8c	8e	8ee
=42	=42	=42	=42
2GG	4.f	4.a	8ee
.	.	.	8dd#
.	.	.	8dd
.	8e	8g	8cc
2GG#	2d	2f	8cc
.	.	.	8b
.	.	.	8dd
.	.	.	8b
=43	=43	=43	=43
1AA	2c#	2e	4.A 4.a
.	.	.	8aa
.	4.c#	4.e	8aa
.	.	.	8gg#
.	.	.	8gg
.	8d	8f#	8ff#
=44	=44	=44	=44
2AA	4.g	4.b	8ff#
.	.	.	8ff
.	.	.	8ee
.	8f#	8a	8dd
2AA#	2e	2g	8dd
.	.	.	8cc#
.	.	.	8ee
.	.	.	8cc#
=45	=45	=45	=45
1BB	2d#	2f#	4.b
.	.	.	8bb
.	4.d#	4.f#	8bb
.	.	.	8aa#
.	.	.	8aa
.	8e	8g	8gg
=46	=46	=46	=46
1BB	4.a	4.cc	8gg
.	.	.	8ff#
.	.	.	8ff
.	8g	8b	8ee
.	4f#	4a	8ee
.	.	.	8dd#
.	8g	8b	8ee
.	8d#	8a	8ff#
=47	=47	=47	=47
8EE	8e	8g	4.gg
8E	4e	4b	.
8E	.	.	.
8E	8e	8b	16ff#
.	.	.	16gg
8E	2e	16g	16bb
.	.	16b	16gg
8E	.	16g	16bb
.	.	16b	16gg
8E	.	16g	16bb
.	.	16b	16gg
8E	.	16g	16ee
.	.	16b	16b
=48	=48	=48	=48
8DD	8e	8B	4.gg#
8D	4e	4b	.
8D	.	.	.
8D	8e	8b	16ff#
.	.	.	16gg#
8D	2e	16g#	16bb
.	.	16b	16gg#
8D	.	16g#	16bb
.	.	16b	16gg#
8D	.	16g#	16bb
.	.	16b	16gg#
8D	.	16g#	16ee
.	.	16b	16b
=49	=49	=49	=49
8CC#	8e#	8B	4.gg#
8C#	4e#	4b	.
8C#	.	.	.
8C#	8e#	8b	16ff##
.	.	.	16gg#
8C#	2e#	16g#	16bb
.	.	16b	16gg#
8C#	.	16g#	16bb
.	.	16b	16gg#
8C#	.	16g#	16bb
.	.	16b	16gg#
8C#	.	16g#	16ee#
.	.	16b	16cc#
=50	=50	=50	=50
8CC#	8c#	8A	4.ff#
8C#	4c#	4a	.
8C#	.	.	.
8C#	8c#	8a	16ee#
.	.	.	16ff#
8C#	2c#	16f#	16aa
.	.	16a	16ff#
8C#	.	16f#	16aa
.	.	16a	16ff#
8C#	.	16f#	16aa
.	.	16a	16ff#
8C#	.	16f#	16cc#
.	.	16a	16a
=51	=51	=51	=51
8DD	8d	8A	4.ff#
8D	4d	4a	.
8D	.	.	.
8D	8d	8a	16ee#
.	.	.	16ff#
8D	2d	16f#	16aa
.	.	16a	16ff#
8D	.	16f#	16aa
.	.	16a	16ff#
8D	.	16f#	16aa
.	.	16a	16ff#
8D	.	16f#	16dd
.	.	16a	16a
=52	=52	=52	=52
8BBB#	8d#	8A	4.ff#
8BB#	4d#	4a	.
8BB#	.	.	.
8BB#	8d#	8a	16ee#
.	.	.	16ff#
8BB#	4.d#	16f#	16aa
.	.	16a	16ff#
8BB#	.	16f#	16dd#
.	.	16a	16b#
8BB#	.	8f#	16a
.	.	.	16f#
8BB#	8B#	8B#	16d#
.	.	.	16B#
=53	=53	=53	=53
2C#	2c#	2c#	2c#
2c#	2C#	2cc#	2cc#
=54	=54	=54	=54
2D	2D	2d	2d
2d	2d	2dd	2dd
=55	=55	=55	=55
1BB	8F#	1A	2d#
.	8A	.	.
.	8F#	.	.
.	8A	.	.
.	8F#	.	2dd#
.	8A	.	.
.	8F#	.	.
.	8A	.	.
=56	=56	=56	=56
1BB	8E	8G	2e
.	8G	8B	.
.	8E	8G	.
.	8G	8B	.
.	8E	8G	2ee
.	8G	8B	.
.	8E	8G	.
.	8G	8B	.
=57	=57	=57	=57
1GG	8d	8B	2e#
.	8B	8d	.
.	8d	8B	.
.	8B	8d	.
.	8d	8B	2ee#
.	8B	8d	.
.	8d	8B	.
.	8B	8d	.
=58	=58	=58	=58
2FF#	4f#	8A#	4f#
.	.	8c#	.
.	8c#	8A#	4ff#
.	8A#	8c#	.
4EE#	8d	8B	8g#
.	8B	8d	8gg#
4EE	8e	8c#	8a#
.	8c#	8e	8aa#
=59	=59	=59	=59
8DD	8B	8f#	16b
.	.	.	16dd
8r	8r	8r	16ff#
.	.	.	16bb
8DD#	8B	8a	16b
.	.	.	16dd#
8r	8r	8r	16ff#
.	.	.	16aa
8EE	8B	8g	16b
.	.	.	16ee
8r	8r	8r	16gg
.	.	.	16bb
8DD#	8B	8f#	16b
.	.	.	16dd#
8r	8r	8r	16ff#
.	.	.	16aa
=60	=60	=60	=60
4EE	4B	4g	16gg
.	.	.	16aa
.	.	.	16bb
.	.	.	16aa
4r	4r	4r	16gg
.	.	.	16ff#
.	.	.	16ee
.	.	.	16dd#
4GG	4B	4b	16ee
.	.	.	16ff#
.	.	.	16gg
.	.	.	16ff#
4r	4r	4r	16ee
.	.	.	16dd
.	.	.	16cc#
.	.	.	16b
=61	=61	=61	=61
8AA	8c#	8e	16a
.	.	.	16cc#
8r	8r	8r	16ee
.	.	.	16aa
8C#	8e	8g	16a
.	.	.	16cc#
8r	8r	8r	16ee
.	.	.	16gg
8D	8d	8f#	16a
.	.	.	16dd
8r	8r	8r	16ff#
.	.	.	16aa
8C#	8c#	8e	16a
.	.	.	16cc#
8r	8r	8r	16ee
.	.	.	16gg
=62	=62	=62	=62
4D	4d	4A 4f#	16ff#
.	.	.	16gg
.	.	.	16aa
.	.	.	16gg
4r	4r	4r	16ff#
.	.	.	16ee
.	.	.	16dd
.	.	.	16cc#
4F#	4d	4A	16dd
.	.	.	16cc#
.	.	.	16b
.	.	.	16a
4r	4r	4r	16g
.	.	.	16f#
.	.	.	16e
.	.	.	16d
=63	=63	=63	=63
1E	1G	1A	16c#
.	.	.	16d
.	.	.	16e
.	.	.	16f#
.	.	.	16g
.	.	.	16f#
.	.	.	16e
.	.	.	16d
.	.	.	16c#
.	.	.	16d
.	.	.	16e
.	.	.	16f#
.	.	.	16g
.	.	.	16e
.	.	.	16d
.	.	.	16c#
=64	=64	=64	=64
1F#	1A	2d	16d
.	.	.	16e
.	.	.	16f#
.	.	.	16g
.	.	.	16a
.	.	.	16g
.	.	.	16f#
.	.	.	16e
.	.	2c	16d#
.	.	.	16e
.	.	.	16f#
.	.	.	16g
.	.	.	16a
.	.	.	16f#
.	.	.	16e
.	.	.	16d#
=65	=65	=65	=65
1G	2G	2B	16e
.	.	.	16f#
.	.	.	16g
.	.	.	16a
.	.	.	16b
.	.	.	16a
.	.	.	16g
.	.	.	16f#
.	2B	4.d	16e#
.	.	.	16dd
.	.	.	16cc#
.	.	.	16b
.	.	.	16a#
.	.	.	16b
.	.	8B	16a#
.	.	.	16b
=66	=66	=66	=66
1F#	1A#	1c#	16a#
.	.	.	16b
.	.	.	16cc#
.	.	.	16dd
.	.	.	16ee
.	.	.	16dd
.	.	.	16cc#
.	.	.	16b
.	.	.	16a#
.	.	.	16b
.	.	.	16cc#
.	.	.	16dd
.	.	.	16cc#
.	.	.	16dd
.	.	.	16ee
.	.	.	16ff#
=67	=67	=67	=67
4E	4A#	4c#	4gg
2.r	2.r	2.r	4.r
.	.	.	8a#
.	.	.	8b
.	.	.	8cc#
=68	=68	=68	=68
1r	8r	2..r	4.dd
.	8b	.	.
.	8a	.	.
.	8g	.	16dd
.	.	.	32cc#
.	.	.	32dd
.	8f#	.	8ff#
.	8e	.	8cc#
.	8d	.	8dd
.	8c#	8a#	8gg
=69	=69	=69	=69
2..r	4d	8b	8ff#
.	.	4r	8cc#
.	8r	.	8dd
.	8e	8gg	8bb
.	4.f#	8ff#	8aa
.	.	8ee	8gg
.	.	8dd	8ff#
8F#	8A#	8cc#	8ee
=70	=70	=70	=70
2F#	2A#	2cc#	2ee
4.G	8B	8b	8dd
.	8c#	8e	8a#
.	8d	8f#	8b
8E	8e	8g	8cc#
=71	=71	=71	=71
2F#	2d	2f#	2b
8FF#	4c#	2r	4a#
8E	.	.	.
8D	4r	.	4r
8C#	.	.	.
=72	=72	=72	=72
4BB	8r	8r	4.dd#
.	8a	8cc	.
2.r	8g	8b	.
.	8d#	8a	8ccc
.	8e	8g	8bb
.	8f#	8a	8dd#
.	8g	8b	8ee
.	8e	8g	8gg
=73	=73	=73	=73
4AA	8r	8e	4.cc#
.	8g	8b	.
2.r	8f#	8a	.
.	8c#	8g	8bb
.	8d	8f#	8aa
.	8e	8g	8cc#
.	8f#	8a	8dd
.	8ff#	8aa	8ddd
=74	=74	=74	=74
2..r	4.ee	4.gg	8ddd
.	.	.	8ccc#
.	.	.	8ccc
.	8dd	8ff#	8bb
.	4.cc#	4.ee	8bb
.	.	.	8aa#
.	.	.	8aa
8B	8b	8dd	8gg
=75	=75	=75	=75
4.A#	4.e	4.cc#	8gg
.	.	.	8ff#
.	.	.	8ee#
8B	8d	16dd	8ff#
.	.	16cc#	.
4G	4g	8b	8ff#
.	.	4r	8ee
8r	8r	.	8gg
8E	8e	8cc#	8ee
=76	=76	=76	=76
4F#	4f#	8cc#	8ee
.	.	8b	8dd
4r	2r	8dd	8ff#
.	.	8b	8dd
4FF#	.	8b	8dd
.	.	8a#	8cc#
4r	8r	8cc#	8ee
.	8c#	8e	8a#
=77	=77	=77	=77
8BB	4B	4d	4b
8B	.	.	.
8B	2.r	8r	8r
8B	.	8gg	8bb
8B	.	8ff#	8aa
8B	.	8ff#	8aa
8B	.	8ee	8gg
8B	.	16ee	16gg
.	.	16ff#	16aa
=78	=78	=78	=78
8BB	2r	4dd#	4ff#
8B	.	.	.
8B	.	8r	8r
8B	.	8aa	8ccc
8B	2d#	8gg	8bb
8B	.	8gg	8bb
8B	.	8ff#	8aa
8B	.	16ff#	16aa
.	.	16gg	16bb
=79	=79	=79	=79
8EE	4e	4ee	4gg
8E	.	.	.
8E	2.r	8r	8r
8E	.	16gg	16bb
.	.	16ff#	16aa
8E	.	8ee	8gg
8E	.	16ee	16gg
.	.	16dd	16ff#
8E	.	8cc#	8ee
8E	.	16cc#	16ee
.	.	16b	16dd
=80	=80	=80	=80
4F#	8r	8a#	16cc#
.	.	.	16ff#
.	8f#	8a#	16ee#
.	.	.	16ff#
2.r	8g#	8b	16ee#
.	.	.	16ff#
.	8a#	8cc#	16ee
.	.	.	16ff#
.	8b	8dd	16dd
.	.	.	16ff#
.	4r	4r	16gg
.	.	.	16ff#
.	.	.	16bb
.	.	.	16ff#
.	8e#	16b	16dd
.	.	16dd	16b
=81	=81	=81	=81
4F#	8f#	16cc#	8a#
.	.	16ff#	.
.	8F#	16ee#	8A#
.	.	16ff#	.
2.r	8G#	16ee#	8B
.	.	16ff#	.
.	8A#	16ee	8c#
.	.	16ff#	.
.	4B	16dd	8d
.	.	16ff#	.
.	.	16gg	4r
.	.	16ff#	.
.	8r	16bb	.
.	.	16ff#	.
.	8e#	16dd	16b
.	.	16b	16dd
=82	=82	=82	=82
4F#	8f#	8a#	16cc#
.	.	.	16ff#
.	8f#	8a#	16ee#
.	.	.	16ff#
2.r	8g#	8b	16ee#
.	.	.	16ff#
.	8a#	8cc#	16ee
.	.	.	16ff#
.	4b	8dd	16dd
.	.	.	16ff#
.	.	4r	16gg
.	.	.	16ff#
.	8r	.	16bb
.	.	.	16ff#
.	8E#	16b	16dd
.	.	16dd	16b
=83	=83	=83	=83
4FF#	4f#	4cc#	4ff#
8r	2.r	2.r	2.r
8FF#	.	.	.
8GG	.	.	.
8GG#	.	.	.
8AA	.	.	.
8AA#	.	.	.
=84	=84	=84	=84
4BB	4.r	4.r	4.r
2.r	.	.	.
.	8d	8f#	8b
.	4c#	4e	8b
.	.	.	8a#
.	8r	8r	8a
.	8B	8d	8g
=85	=85	=85	=85
1r	2.A#	2.c#	2g
.	.	.	4f#
.	4r	4r	4r
=86	=86	=86	=86
1r	1r	1r	4.r
.	.	.	8b
.	.	.	8b
.	.	.	8cc
.	.	.	8cc#
.	.	.	8dd
=87	=87	=87	=87
2..r	2a	2cc	2dd#
.	4g	4b	4ee
.	4r	8r	8r
8E	.	8b	8gg
=88	=88	=88	=88
8E	4.r	4.b	8gg
8D	.	.	8ff#
8C#	.	.	8ee#
8C#	8d	8b	8ee#
2C#	8d	8b	2ee#
.	8c#	8cc#	.
.	8B	8dd	.
.	8B	8dd	.
=89	=89	=89	=89
1F#	8A#	8cc#	8ee
.	8B	8b	8dd
.	8c#	8a#	8cc#
.	8c#	8f#	8cc#
.	8c#	8e	8cc#
.	8d	8f#	8b
.	8e	8g	8a#
.	8c#	8e	8a#
=90	=90	=90	=90
2G	2c#	2e	2a#
4G	4B	4d	4b
8r	8r	8r	8r
8BB	8f#	8f#	8dd
=91	=91	=91	=91
4E	4g	4e	4cc#
4r	4r	4r	4r
4F#	4e	4c#	4a#
4r	4r	4r	4r
=92	=92	=92	=92
4.BB	4.B	4.B	4.B
8BB	8B	8B	8B
8D	8d	8d	8d
8AA#	8A#	8A#	8A#
8BB	8B	8B	8B
8E	8e	8e	8e
=93	=93	=93	=93
8D	8d	8d	8d
8AA#	8A#	8A#	8A#
8BB	8B	8B	8B
2r	4r	4r	8b
.	.	.	8a#
.	8B	8d	8e#
.	8A#	8c#	8f#
8r	8r	8r	8ee
=94	=94	=94	=94
1r	8r	8r	8dd
.	8e	8g	8a#
.	8d	8f#	8b
.	4r	4r	8bb
.	.	.	8aa#
.	8b	8dd	8ee#
.	8a#	8cc#	8ff#
.	8r	8r	8eee
=95	=95	=95	=95
8B	8r	8r	8ddd
8F#	8f#	8b	8r
8d	8d	8f#	8bb
8F#	8B	8dd	8bb
8c#	4F#	8r	8aa#
8F#	.	8cc#	8r
8A#	4r	8f#	8ee
8F#	.	8a#	8ee
=96	=96	=96	=96
8B	8r	8r	8dd
8F#	8f#	8b	8r
8d	8d	8f#	8bb
8F#	8B	8dd	8bb
8c#	4F#	8r	8aa#
8F#	.	8cc#	8r
8A#	4r	8f#	8ee
8F#	.	8a#	8ee
=97	=97	=97	=97
4B	8r	8r	16dd
.	.	.	16ee
.	8d	8B	16ff#
.	.	.	16ee
4r	8d	8B	16dd
.	.	.	16cc#
.	8e	8c#	16b
.	.	.	16a#
4D	4f#	4d	16b
.	.	.	16a
.	.	.	16g
.	.	.	16f#
4r	4r	4r	16e
.	.	.	16d
.	.	.	16c#
.	.	.	16B
=98	=98	=98	=98
8E	1G	1c	2c
8E	.	.	.
8E	.	.	.
8E	.	.	.
8E	.	.	2ccc
8E	.	.	.
8E	.	.	.
8E	.	.	.
=99	=99	=99	=99
8E#	1G#	1B	2d
8E#	.	.	.
8E#	.	.	.
8E#	.	.	.
8E#	.	.	2ddd
8E#	.	.	.
8E#	.	.	.
8E#	.	.	.
=100	=100	=100	=100
8F#	2.B	2.d	4f#
8F#	.	.	.
8F#	.	.	2fff#
8F#	.	.	.
8F#	.	.	.
8F#	.	.	.
8F#	4d	4b	16eee
.	.	.	16ddd
8F#	.	.	16ccc#
.	.	.	16bb
=101	=101	=101	=101
8FF#	2.f#	2b	1ccc#
8FF#	.	.	.
8FF#	.	.	.
8FF#	.	.	.
8FF#	.	2a#	.
8FF#	.	.	.
8FF#	8e	.	.
8FF#	16d	.	.
.	16e	.	.
=102	=102	=102	=102
4BB	8d	4b	8bb
.	8r	.	8r
2.r	8d	2r	8b
.	8B	.	16b
.	.	.	32a#
.	.	.	32b
.	8A#	.	8cc#
.	8F#	.	8r
.	4r	8a#	8cc#
.	.	8f#	16cc#
.	.	.	32b
.	.	.	32cc#
=103	=103	=103	=103
4r	4r	8b	8dd
.	.	8B	8r
8G	8B	8B	8ee
8G	8B	8B	16ee
.	.	.	32dd#
.	.	.	32ee
8F#	8d	8B	8dd
8r	8r	8r	8ff#
8FF#	8e	8A#	8cc#
8r	8r	8r	8ff#
=104	=104	=104	=104
8BB	8d	8B	8B
8B	4r	4r	8r
8r	.	.	8b
8B	8f#	8d	16b
.	.	.	32a#
.	.	.	32b
8r	8r	8r	8cc#
8F#	8A#	8e 8c#	8r
8r	8r	8r	8cc#
8F#	8A#	8e 8c#	16cc#
.	.	.	32b
.	.	.	32cc#
=105	=105	=105	=105
8r	8r	8r	8dd
8B	8B	8d	8r
8r	8r	8r	8ee
8E	8g	8cc#	16ee
.	.	.	32dd#
.	.	.	32ee
8r	8r	8r	8dd
8F#	8d	8b	8ff#
8r	8r	8r	8cc#
8F#	8c#	8a#	8ff#
=106	=106	=106	=106
8BB	8d	8b	8B
2r	8B	8dd	8r
.	8f#	8cc#	16aa#
.	.	.	16bb
.	8e	8ff#	16ccc#
.	.	.	16aa#
.	8d	8b	8bb
8r	8d	8r	8bb
8F#	8c#	16a#	16ccc#
.	.	16b	16ddd
8r	8f#	16cc#	16eee
.	.	16a#	16ccc#
=107	=107	=107	=107
8BB	8f#	8b	8ddd
4.r	4.r	8b	8ddd
.	.	16cc#	16eee
.	.	16dd	16fff#
.	.	16ee	16ggg
.	.	16cc#	16eee
8FF#	8B	8dd	8fff#
8r	8B	8dd	8fff#
8FF#	8F#	8cc# 8e	8aaa#
8r	8F#	8cc# 8e	8aaa#
=108	=108	=108	=108
4BB	4B	4d 4b	4bbb
2.r	2.r	2.r	2.r
==	==	==	==
*-	*-	*-	*-
!!!RWG: This file only contains pitch and duration data.
!!!RWG: Transposing instruments are not transposed.
!!!RWG: Key is interpreted using the Humdrum key tool.
!!!SCA: 
!!!YOR: Dover Edition
!!!AGN: chamber; string quartet
!!!AFT: stage1
!!!ENC: F. Bennion
!!!END: 1997/04/15
!!!AST: classical
!!!YEC: Copyright 1994, Center for Computer Assisted Research in the Humanities
!!!YEM: Rights to all derivative electronic formats reserved.
!!!YEM: Refer to licensing agreement for further details.
!!!YEN: United States of America
!!!EED: W.B. Hewlett
!!!KEY: 3915340553
!!!EMD: Converted from MuseData to Humdrum Jul 29, 1999, by Bret Aarden using muse2kern.
!!!VTS: 4199638957
